X: 172
T: Kingsbridge Assembly
%R: jig
B: Chas & Sam Thompson "Twenty Four Country Dances for the Year 1780", London 1780, p.86 #2
F: http://www.vwml.org/browse/browse-collections-dance-tune-books/browse-thompsons1780
Z: 2014 John Chambers <jc:trillian.mit.edu> (added dance description)
M: 6/8
L: 1/8
K: D
% - - - - - - - - - - - - - - - - - - - - - - - - - - - - -
|:\
f2e f2e | dcd A2A | BGB AFA | GEG F2D |\
f2e f2e | dcd A2A | BAG FGE | D2D D3 :|
|:\
DFA AFD | GAB  B3 | Ace ecA | def f3 |\
afd BcB | gec ABA | BAG FGE | D2D D3 :|
% - - - - - - - - - - Dance description - - - - - - - - - -
%%begintext align
%% Hey contrary sides .|. then on your own sides :|.
%% The 1st 2d & 3d Cu. Promenade all round .|: lead
%% thro' the bottom and cast up lead thro' the top
% and cast off :|:
%%endtext

%%sep 1 1 500
%%sep 1 1 500
